X:662
T: ICH WEISS EIN MAGET SCHONE
N: E2045
O: Europa, Mitteleuropa, Deutschland
R: geistlich, Marien - Lied
M: 6/4
L: 1/4
K: C
C | A,2A,B,2B, | C3C2
C | D2CC2B, | A,3G,2
G, | G,2A,B,2B, | C3C2
C | C2G,G,2F, | E,4z
E, | E,2E,G,2F, | E,3C,2
C, | G,2G,A,2B, | C3E2
D | C2CA,2B, | C4z

@@@ Tune index: 5346
